icon-themes/breeze_svg/cmd/32/cut.svg

<svg viewBox="0 0 32 32" xmlns="http://www.w3.org/2000/svg"><path d="m10.017578 4c-.6517397 1.11735-.017578 2-.017578 2l4.939453 9.306641-3.275391 6.443359c-.616826-.485625-1.379009-.749775-2.164062-.75-1.9329966 0-3.5 1.567003-3.5 3.5s1.5670034 3.5 3.5 3.5c1.932997 0 3.5-1.567003 3.5-3.5-.0011-.511831-.114435-1.017193-.332031-1.480469l2.132812-3.496093c1.17063-.015001 1.252757-.99003 1.935547-1.00586l2.66211 4.363281c-.261314.499733-.398005 1.05521-.398438 1.619141 0 1.932997 1.567003 3.5 3.5 3.5s3.5-1.567003 3.5-3.5-1.567003-3.5-3.5-3.5c-.758633.0017-1.49618.249822-2.101562.707031l-3.275391-6.43164 4.876953-9.275391s.63644-.79082 0-2l-5.992188 10.271484zm5.982422 12c.4155 0 .75.3345.75.75s-.3345.75-.75.75-.75-.3345-.75-.75.3345-.75.75-.75zm-6.5 6c1.380712 0 2.5 1.119288 2.5 2.5s-1.119288 2.5-2.5 2.5c-1.3807119 0-2.5-1.119288-2.5-2.5s1.1192881-2.5 2.5-2.5zm13 0c1.380712 0 2.5 1.119288 2.5 2.5s-1.119288 2.5-2.5 2.5-2.5-1.119288-2.5-2.5 1.119288-2.5 2.5-2.5z" fill="#4d4d4d"/></svg>

<svg xmlns="http://www.w3.org/2000/svg" viewBox="0 0 32 32">
 <path 
     style="fill:#4d4d4d" 
     d="M 10.017578 4 C 9.3658383 5.11735 10 6 10 6 L 14.939453 15.306641 L 11.664062 21.75 C 11.047236 21.264375 10.285053 21.000225 9.5 21 C 7.5670034 21 6 22.567003 6 24.5 C 6 26.432997 7.5670034 28 9.5 28 C 11.432997 28 13 26.432997 13 24.5 C 12.9989 23.988169 12.885565 23.482807 12.667969 23.019531 L 14.800781 19.523438 C 15.971411 19.508437 16.053538 18.533408 16.736328 18.517578 L 19.398438 22.880859 C 19.137124 23.380592 19.000433 23.936069 19 24.5 C 19 26.432997 20.567003 28 22.5 28 C 24.432997 28 26 26.432997 26 24.5 C 26 22.567003 24.432997 21 22.5 21 C 21.741367 21.0017 21.00382 21.249822 20.398438 21.707031 L 17.123047 15.275391 L 22 6 C 22 6 22.63644 5.20918 22 4 L 16.007812 14.271484 L 10.017578 4 z M 16 16 C 16.4155 16 16.75 16.3345 16.75 16.75 C 16.75 17.1655 16.4155 17.5 16 17.5 C 15.5845 17.5 15.25 17.1655 15.25 16.75 C 15.25 16.3345 15.5845 16 16 16 z M 9.5 22 C 10.880712 22 12 23.119288 12 24.5 C 12 25.880712 10.880712 27 9.5 27 C 8.1192881 27 7 25.880712 7 24.5 C 7 23.119288 8.1192881 22 9.5 22 z M 22.5 22 C 23.880712 22 25 23.119288 25 24.5 C 25 25.880712 23.880712 27 22.5 27 C 21.119288 27 20 25.880712 20 24.5 C 20 23.119288 21.119288 22 22.5 22 z "
     />
</svg>
